icons/24x24_trash_outline.svg

<svg xmlns="http://www.w3.org/2000/svg" width="24" height="24" viewBox="0 0 24 24">
  <path fill-rule="evenodd" d="M8,19 L16,19 L16,11 L8,11 L8,19 Z M18,19 C18,20.1045695 17.1045695,21 16,21 L8,21 C6.8954305,21 6,20.1045695 6,19 L6,10.7324356 C5.40219863,10.3866262 5,9.74028236 5,9 L5,7 C5,5.8954305 5.8954305,5 7,5 L9,5 C9,3.8954305 9.8954305,3 11,3 L13,3 C14.1045695,3 15,3.8954305 15,5 L17,5 C18.1045695,5 19,5.8954305 19,7 L19,9 C19,9.74028236 18.5978014,10.3866262 18,10.7324356 L18,19 Z M11,5 L11,7 L7,7 L7,9 L17,9 L17,7 L13,7 L13,5 L11,5 Z M10,12 C10.5522847,12 11,12.4477153 11,13 L11,17 C11,17.5522847 10.5522847,18 10,18 C9.44771525,18 9,17.5522847 9,17 L9,13 C9,12.4477153 9.44771525,12 10,12 Z M14,12 C14.5522847,12 15,12.4477153 15,13 L15,17 C15,17.5522847 14.5522847,18 14,18 C13.4477153,18 13,17.5522847 13,17 L13,13 C13,12.4477153 13.4477153,12 14,12 Z"/>
</svg>

<svg width="24" height="24" fill="none" xmlns="http://www.w3.org/2000/svg"><path fill-rule="evenodd" clip-rule="evenodd" d="M8 19h8v-8H8v8Zm10 0a2 2 0 0 1-2 2H8a2 2 0 0 1-2-2v-8.268A2 2 0 0 1 5 9V7a2 2 0 0 1 2-2h2a2 2 0 0 1 2-2h2a2 2 0 0 1 2 2h2a2 2 0 0 1 2 2v2a2 2 0 0 1-1 1.732V19ZM11 5v2H7v2h10V7h-4V5h-2Zm-1 7a1 1 0 0 1 1 1v4a1 1 0 1 1-2 0v-4a1 1 0 0 1 1-1Zm4 0a1 1 0 0 1 1 1v4a1 1 0 1 1-2 0v-4a1 1 0 0 1 1-1Z" fill="#000"/></svg>
